public/media/mastodon.svg

<svg width="50" height="50" viewBox="0 0 50 50" fill="none" xmlns="http://www.w3.org/2000/svg">
<path d="M39.8995 19.5C39.8995 12.6 35.3995 10.5 35.3995 10.5C30.8995 8.5 19.0995 8.5 14.6995 10.5C14.6995 10.5 10.1995 12.5 10.1995 19.5C10.1995 27.8 9.69953 38 17.6995 40.1C20.5995 40.9 23.0995 41 25.0995 40.9C28.6995 40.7 30.7995 39.6 30.7995 39.6L30.4995 37C30.4995 37 27.8995 37.8 24.9995 37.7C22.0995 37.6 19.0995 37.4 18.5995 33.8C18.5995 33.5 18.4995 33.1 18.4995 32.8C24.5995 34.3 29.7995 33.4 31.2995 33.3C35.2995 32.8 38.7995 30.4 39.1995 28.1C39.9995 24.6 39.8995 19.5 39.8995 19.5ZM34.5995 28.4H31.2995V20.2C31.2995 16.7 26.6995 16.5 26.6995 20.7V25.2H23.3995V20.7C23.3995 16.5 18.7995 16.7 18.7995 20.2V28.4H15.4995C15.4995 19.7 15.0995 17.8 16.7995 15.9C18.5995 13.8 22.4995 13.7 24.1995 16.3L24.9995 17.7L25.7995 16.3C27.4995 13.7 31.3995 13.8 33.1995 15.9C34.8995 17.9 34.5995 19.7 34.5995 28.4Z" fill="white"/>
</svg>

<svg fill="none" height="50" viewBox="0 0 50 50" width="50" xmlns="http://www.w3.org/2000/svg"><path d="m39.8995 19.5c0-6.9-4.5-9-4.5-9-4.5-2-16.3-2-20.7 0 0 0-4.5 2-4.5 9 0 8.3-.49997 18.5 7.5 20.6 2.9.8 5.4.9 7.4.8 3.6-.2 5.7-1.3 5.7-1.3l-.3-2.6s-2.6.8-5.5.7-5.9-.3-6.4-3.9c0-.3-.1-.7-.1-1 6.1 1.5 11.3.6 12.8.5 4-.5 7.5-2.9 7.9-5.2.8-3.5.7-8.6.7-8.6zm-5.3 8.9h-3.3v-8.2c0-3.5-4.6-3.7-4.6.5v4.5h-3.3v-4.5c0-4.2-4.6-4-4.6-.5v8.2h-3.3c0-8.7-.4-10.6 1.3-12.5 1.8-2.1 5.7-2.2 7.4.4l.8 1.4.8-1.4c1.7-2.6 5.6-2.5 7.4-.4 1.7 2 1.4 3.8 1.4 12.5z" fill="#fff"/></svg>
